X:1
T:Jesus Is God, CMD
T:William Charles Poole, 1920
T:Jesus Is God, CMD
T:Public Domain
C:William Charles Poole, 1920
Z:Public Domain
%%score ( 1 2 ) ( 3 4 )
L:1/8
M:4/4
K:D
V:1 treble 
V:2 treble 
V:3 bass 
V:4 bass 
V:1
 D2 | F2 A2 d2 [GB]2 | E2 z G F2 x | [DF]2 | E2 [CA]2 B2 z D | [CA]6 A2 | A2 F2 [Fd]2 GF | %7
 E2 z G [DF]2 [EF]2 | [DB]2 Bc d2 z E x | [DB]6 [EA]2 | D2 z E [B,D]2 E2 | [DF]2 [DG]2 [DA]2 A2 | %12
 [GB]3 A [GB]2 [GB]2 | [Gc]6 [EA]2 | A2 z c [GB]2 [FA]2 | E2 D[EG] [DF]2 [DF]2 | %16
 [DG]2 [DG]2 [DE]2 [CE]2 x | D6 |] %18
V:2
 D2 | F2 A2 d2 x2 | A3 E2 F2 | x2 | E2 E3 B2 x | x6 A2 | A2 x2 B2 x2 | A3 C2 x3 | x2 E2 F3 c2 | %9
 x8 | F3 C2 x E2 | x6 A2 | x8 | x8 | d3 F2 x3 | A3 x5 | x9 | D6 |] %18
V:3
 D,2 | F,2 A,2 D2 [G,D]2 | [A,D]2 [A,C]2 [D,D]2 x | [D,A,]2 | [C,A,]2 [F,A,]2 [E,A,]2 [E,^G,]2 | %5
 A,6 A,2 | A,2 F,2 [D,A,]2 E,D, | [C,A,]2 [A,,A,]2 [D,A,]2 [C,^A,]2 | %8
 [B,,B,]2 [G,B,]2 [F,B,]2 [F,^A,]2 x | [B,,B,]6 [C,E,]2 | [D,A,]2 [A,,G,]2 [B,,F,]2 [C,A,]2 | %11
 [D,A,]2 [E,A,]2 [F,A,]2 [F,D]2 | [G,D]3 [F,D] [G,D]2 [E,E]2 | [A,E]6 [G,C]2 | %14
 [F,D]2 [D,D]2 [G,D]2 [D,D]2 | [A,,C]2 B,,C, [D,A,]2 B,2 | [G,B,]2 [G,B,]2 A,2 z G, x | [D,F,]6 |] %18
V:4
 D,2 | F,2 A,2 x4 | x7 | x2 | x8 | A,6 A,2 | A,2 F,2 G,2 x2 | x8 | x9 | x8 | x8 | x8 | x8 | x8 | %14
 x8 | x2 A,2 x B,2 x | x4 A,3 A,,2 | x6 |] %18

